SVG/tint.svg

<?xml version="1.0" encoding="utf-8"?>
<!-- Generated by IcoMoon.io -->
<!DOCTYPE svg PUBLIC "-//W3C//DTD SVG 1.1//EN" "http://www.w3.org/Graphics/SVG/1.1/DTD/svg11.dtd">
<svg version="1.1" xmlns="http://www.w3.org/2000/svg" xmlns:xlink="http://www.w3.org/1999/xlink" width="8" height="14" viewBox="0 0 8 14">
<path fill="#444444" d="M4 9q0-0.281-0.156-0.539-0.008-0.008-0.121-0.176t-0.199-0.297-0.195-0.344-0.164-0.395q-0.031-0.125-0.164-0.125t-0.164 0.125q-0.055 0.18-0.164 0.395t-0.195 0.344-0.199 0.297-0.121 0.176q-0.156 0.258-0.156 0.539 0 0.414 0.293 0.707t0.707 0.293 0.707-0.293 0.293-0.707zM8 8q0 1.656-1.172 2.828t-2.828 1.172-2.828-1.172-1.172-2.828q0-1.133 0.633-2.148 0.047-0.070 0.488-0.707t0.789-1.18 0.777-1.391 0.648-1.574q0.070-0.234 0.266-0.367t0.398-0.133 0.402 0.133 0.262 0.367q0.219 0.727 0.648 1.574t0.777 1.391 0.789 1.18 0.488 0.707q0.633 0.992 0.633 2.148z"></path>
</svg>

<svg xmlns="http://www.w3.org/2000/svg" viewBox="0 0 8 14"><path d="M4 9q0-.28-.156-.54-.008-.007-.12-.175t-.2-.297-.195-.344-.168-.395q-.03-.13-.162-.13t-.164.125q-.055.18-.164.394t-.195.344-.2.297-.12.177Q2 8.717 2 8.997q0 .414.294.707T3 9.997t.708-.294T4 9zm4-1q0 1.656-1.172 2.828T4 12t-2.828-1.172T0 8q0-1.133.633-2.148.047-.07.488-.707t.79-1.18.78-1.39T3.335 1q.07-.234.266-.367T4 .5t.4.133.263.367q.22.727.648 1.574t.78 1.39.79 1.18.488.708Q8 6.844 8 8z" /></svg>
